!!!OTL: 662b. "Wanderers Unglueck."
!!!COM: Conrad Rotter
!!!ODT: 1825
!!!ARE: Europa, Mitteleuropa, Deutschland
!!!SCT: B0662A
!!!TXL: @@DE
!!!YEM: Copyright 1995, estate of Helmut Schaffrath.
**kern	**text
*ICvox	*
*Ivox	*
*clefG2	*
*M3/8	*
*k[f#]	*
*G:	*
!LO:TX:a:t=Allegretto.	!
{8b	Ein
=1	=1
8b	Reis-
8a	-lein
8g	am
=2	=2
8d	Hut,
8r	.
8d	den
=3	=3
8d	Stab
16eL	in
16f#J	.
16gL	der
16g#J	.
=4	=4
4a}	Hand,
{8a	ʒieht
=5	=5
8cc	raſt-
8b	-los
8a	der
=6	=6
8g	Wandrer
8f#	.
8e	von
=7	=7
8d	Lan-
8e	-de
8f#	ʒu
=8	=8
4g}	Land,
{8g	be-
=9	=9
8g	-tritt
8g	man-
8g	-che
=10	=10
8a	Straßen
8g	.
8g	und
=11	=11
8a	ſieht
8a	manchen
8a	.
=12	=12
8bL	Ort,
8aJ}	.
{8a	darf
=13	=13
8b	nirgends
8b	.
8b	ver-
=14	=14
16ccL	-wei-
16bJ	.
16aL	-len,
16gJ	.
16f#L	es
16eJ	.
=15	=15
8d	ru-
8e	-fet
8f#	ihn
=16	=16
!LO:TX:a:t=P:Nachspiel für Clavier:problem	!
4g}	fort.
==	==
!!!AGN: Wander -, Moral - Lied, Vergaenglichkeit
!!!GTL: Didaktische Lieder: Betrachtungen, Vergleiche und Moralisationen
!!!ONB: ESAC (Essen Associative Code) Database: BOEHME
!!!AMT: simple triple
!!!AIN: vox
!!!EED: Helmut Schaffrath
!!!EEV: 1.0
!!Original. Ged. und Musik von Conrad Rotter 1825.
!!@@COMMENT:"Das Original von Text und Melodie mit Clavierbegleitung (letʒtere war ſehr einfacher Art:
!!Vorſchlagen des Baſſes und ʒweimaliges Nachſchlagen des Akkordes für jeden Takt) hatte die Witwe
!!Rotters während ihres Berliner Auſenthalts 1868 an L. Erk abgegeben mit folgendem Briefe:[...]"
!!@@END:
!!!Text: C. Rotter
!!!URL-scan: https://archive.org/details/BoehmeVtLieder1895/page/n515/mode/2up
!!!ENC: Anna Maria Matuszewska
!!!EEV: 2024/16/07
*-	*-
